X:1
T:Aunt Polly
L:1/8
M:4/4
I:linebreak $
K:D
V:1 treble 
V:1
 (F/G/F) D2 (F/G/F) D2 | F2 A2 F3 (F | A2) A2 FEDF | E2 F2 F4 | (F/G/F) D2 (F/G/F) D2 | F2 A2 F4 | %6
 (F/G/F) D2 E2 F2 |1 D8 :|2$ D6 |: (3ABc | d2 d2- ddfe | d3 B A2 (Bc | d2) dB A2 EF | %13
 (E/F/E) D2 E2 F2 | D6 (3ABc | d2 d2- ddfe |$ d3 B A2 (Bc | d2) dB A2 EF | (E/F/E) D2 E2 F2 | D8 || %20
